!!!OTL: ES GING EINST EIN VERLIEBTES PAAR
!!!ARE: Europa, Mitteleuropa, Deutschland, Rheinland; Lahnkreis; Dillkreis
!!!SCT: E0052
!!!YEM: Copyright 1995, estate of Helmut Schaffrath.
**kern
*ICvox
*Ivox
*M6/8
*k[f#]
*G:
{8dd
=1
4dd
8dd
4gg
8gg
=2
4b
8b
4dd}
{8dd
=3
4a
8a
8gg
8ee
8cc#
=4
4.ee
4dd}
{8dd
=5
4dd
8dd
4gg
8gg
=6
4b
8b
4dd}
{8a
=7
8b
8ee
8dd
8cc
8b
8a
=8
4.a
4g}
==
!!!AGN: erzaehlendes Volks - Lied, Sage, Mord, Verfuehrung, Ballade ?
!!!ONB: ESAC (Essen Associative Code) Database: ERK1
!!!AMT: compound duple
!!!AIN: vox
!!!EED: Helmut Schaffrath
!!!EEV: 1.0
*-
